X:8
T:Polska efter Omas Ludvig
R:polska K1
A:Dalarna
Z:hn-k1-8
M:3/4
K:Dm
^c|A2 ^ce d=B|G2 =Bd ^c2|A2 ^ce d=B|SG=B B<A AA|
A2 ^ce d=B|G2 =Bd ^c2|A2 ^c/d/e/f/ de|S^c=B/c/ d3:|
|:^c|A2 az ag|ef ga ge|^cd ef de|S^c=B/c/ A3A|
A2 az ag|ef ga ge|^cd ef de|S^c=B/c/ d3:|

